src/images/favicon.svg

<?xml version="1.0" encoding="utf-8"?>
<!-- Generator: Adobe Illustrator 16.0.0, SVG Export Plug-In . SVG Version: 6.00 Build 0)  -->
<!DOCTYPE svg PUBLIC "-//W3C//DTD SVG 1.1//EN" "http://www.w3.org/Graphics/SVG/1.1/DTD/svg11.dtd">
<svg version="1.1" id="Livello_1" xmlns="http://www.w3.org/2000/svg" xmlns:xlink="http://www.w3.org/1999/xlink" x="0px" y="0px"
	 width="612px" height="116px" viewBox="0 0 612 116" enable-background="new 0 0 612 116" xml:space="preserve">
<g>
	<path fill-rule="evenodd" clip-rule="evenodd" d="M356,109c2.521-0.317,5.036-0.854,7.562-0.911
		c7.238-0.162,9.463-2.284,9.475-9.676c0.032-20.495,0.012-40.99,0.012-61.485c0-5.165,0.017-10.331-0.005-15.496
		c-0.033-7.963-1.806-9.764-9.586-9.796c-2.22-0.01-4.44-0.002-6.661-0.002c-0.012-0.42-0.024-0.84-0.037-1.26
		c1.188-0.077,2.376-0.237,3.561-0.218c16.812,0.281,33.668-0.03,50.411,1.191c6.641,0.484,13.525,3.531,19.414,6.94
		c7.984,4.622,10.11,12.629,8.904,21.677c-1.079,8.104-6.174,12.837-13.13,15.582c-5.043,1.989-10.528,2.857-16.757,4.47
		c1.815,0.58,3.021,1.042,4.266,1.352c13.312,3.306,21.727,10.922,24.656,24.983c1.26,6.048,4.696,12.101,8.572,17.026
		c4.729,6.009,12.13,5.549,18.96,3.91c4.172-1.002,4.549-4.737,4.543-8.445c-0.036-21.661-0.016-43.322-0.015-64.984
		c0-4.832,0.071-9.666-0.028-14.496c-0.118-5.754-2.12-7.649-7.935-7.72c-2.793-0.034-5.586-0.006-8.359-1.005
		c15.472,0,30.943,0,46.415,0c0.028,0.333,0.057,0.666,0.085,0.999c-2.148,0-4.297-0.008-6.445,0.002
		c-7.414,0.033-8.993,1.595-9.01,9.177c-0.034,15.496-0.013,30.992-0.013,46.488c0.001,11.164-0.036,22.329,0.026,33.492
		c0.031,5.53,1.698,7.141,7.104,7.252c25.512,0.527,38.98-8.735,49.004-33.99c5.76-14.515,11.173-29.167,16.951-43.674
		c1.319-3.314,3.603-6.232,5.257-9.429C565.233,17.022,567.075,12.989,569,9c0.333,0,0.667,0,1,0
		c0.118,0.81,0.121,1.657,0.371,2.425c6.055,18.585,12.108,37.171,18.224,55.736c3.573,10.849,7.153,21.697,10.928,32.477
		c1.849,5.276,5.297,8.811,11.478,8.362c-0.833,0.333-1.665,0.953-2.5,0.957C595.667,109.019,582.833,109,570,109
		c2.688-0.34,5.375-0.671,8.062-1.021c5.007-0.653,7.573-3.316,6.389-7.485c-2.581-9.089-5.576-18.06-8.472-27.304
		c-9.846,0-19.321,0.172-28.786-0.09c-3.45-0.096-5.018,1.138-6.155,4.242C537.155,87.942,533.031,98.454,529,109
		c-28.667,0-57.333,0-86,0c-9.25-2.926-16.057-8.426-18.784-18.087c-0.855-3.028-1.577-6.113-2.087-9.218
		c-3.141-19.136-16.19-24.18-34.423-20.918c0,13.424-0.11,26.888,0.058,40.349c0.062,4.951,2.207,6.64,7.191,6.944
		c3.022,0.185,6.03,0.611,9.045,0.93C388,109,372,109,356,109z M387.637,58.43c6.382,0,11.871,0.388,17.285-0.085
		c9.661-0.842,15.482-6.604,17.358-15.895c1.971-9.758,2.02-19.442-6.745-26.425c-2.483-1.979-5.854-3.104-9.001-3.912
		c-2.68-0.688-5.62-0.472-8.444-0.456c-10.507,0.056-10.515-1.552-10.464,10.608C387.676,34.221,387.637,46.176,387.637,58.43z
		 M560.739,26.099c-6.087,15.938-11.688,30.602-17.397,45.553c10.935,0,21.241,0,32.071,0
		C570.54,56.524,565.834,41.914,560.739,26.099z"/>
	<path fill-rule="evenodd" clip-rule="evenodd" d="M3,10c15.738,0,31.476,0,47.213,0c0.025,0.547,0.051,1.094,0.076,1.641
		c-2.826,0-5.653,0.072-8.476-0.016c-4.577-0.144-6.711,2.24-7.06,6.578c-0.067,0.829-0.118,1.663-0.118,2.494
		c-0.004,26.325-0.029,52.65,0.02,78.976c0.013,7.099,1.44,7.83,8.529,8.471c23.553,2.127,37.189-10.773,45.841-30.418
		c6.625-15.041,11.939-30.654,18.131-45.894c1.715-4.223,4.695-7.913,6.702-12.039C115.537,16.34,116.641,12.608,118,9
		c0.667,0,1.333,0,2,0c2.836,9.328,5.556,18.693,8.534,27.976c6.078,18.949,12.293,37.855,18.459,56.776
		c0.205,0.63,0.551,1.218,0.715,1.855c1.819,7.063,5.725,12.04,13.292,13.393c-13.667,0-27.333,0-41,0
		c2.509-0.335,5.014-0.706,7.528-0.996c5.486-0.634,7.912-3.228,6.529-8.207c-2.469-8.892-5.493-17.628-8.336-26.593
		c-10.37,0-20.323-0.154-30.262,0.166c-1.493,0.048-3.625,2.031-4.255,3.604C86.954,87.576,83.03,98.31,79,109
		c-24.011,0-48.021,0.016-72.032-0.043C5.645,108.954,4.323,108.333,3,108c2.998,0.016,5.996,0.085,8.992,0.036
		c5.75-0.093,7.753-2.018,8.03-7.806c0.127-2.658,0.027-5.328,0.027-7.992c0-23.981,0.026-47.962-0.017-71.943
		c-0.012-6.727-1.96-8.638-8.583-8.638C8.633,11.656,5.816,11.879,3,12C3,11.333,3,10.667,3,10z M93.084,71.783
		c11.12,0,21.378,0,32.151,0c-4.861-15.117-9.597-29.842-14.694-45.692C104.474,41.973,98.858,56.67,93.084,71.783z"/>
	<path fill-rule="evenodd" clip-rule="evenodd" d="M261,109c2.856-0.317,5.706-0.813,8.569-0.915
		c6.104-0.219,8.415-2.175,9.142-8.209c0.139-1.152,0.098-2.329,0.099-3.494c0.001-24.49,0.012-48.98-0.015-73.471
		c-0.01-9.534-1.805-11.276-11.345-11.274c-1.89,0.001-3.78,0.001-5.652-1.116c26.267,0,52.533,0,79.293,0
		c1.421,11.847,2.841,23.689,4.261,35.531c-0.248,0.052-0.496,0.104-0.744,0.155c-1.099-3.961-2.003-7.988-3.33-11.871
		c-5.567-16.294-14.555-22.699-31.558-22.7c-3.999,0-8,0.096-11.994-0.021c-3.303-0.097-4.912,1.146-4.892,4.636
		c0.078,13.657,0.032,27.314,0.032,41.395c7.741,0.97,14.946,0.684,21.072-4.788c5.814-5.194,6.805-12.523,8.774-19.483
		c0,17.425,0,34.851,0,50.522c-2.475-5.176-4.832-12.286-8.956-18.154c-4.765-6.78-12.61-7.078-20.901-6.216
		c0,4.871-0.001,9.487,0,14.104c0.002,9.663,0.077,19.326-0.028,28.988c-0.041,3.762,1.412,5.538,5.296,5.46
		c6.162-0.124,12.343,0.24,18.489-0.1c11.222-0.621,18.782-7.312,24.18-16.372c3.349-5.619,5.494-11.957,8.775-19.308
		C347.586,85.362,345.793,97.182,344,109C316.333,109,288.667,109,261,109z"/>
	<path fill-rule="evenodd" clip-rule="evenodd" d="M180,109c3.022-0.317,6.051-0.949,9.063-0.882
		c4.762,0.107,7.093-2.225,7.748-6.636c0.219-1.472,0.228-2.984,0.228-4.479c0.013-24.813,0.017-49.628-0.01-74.441
		c-0.002-1.821-0.111-3.668-0.431-5.456c-0.644-3.601-2.788-5.527-6.58-5.46c-3.085,0.055-6.171,0.011-9.533,0.011
		c0.413-0.894,0.523-1.335,0.629-1.334c17.795,0.225,35.609,0.077,53.377,0.904c8.976,0.417,17.124,4.247,23.27,11.201
		c9.256,10.471,7.578,24.877-3.865,33.133c-7.69,5.549-16.484,7.678-25.879,7.634c-5.281-0.025-10.563-0.005-16.161-0.005
		c0,13.603-0.123,26.552,0.076,39.497c0.058,3.81,2.834,5.255,6.5,5.397c3.196,0.125,6.378,0.597,9.566,0.915
		C212,109,196,109,180,109z M211.676,61.955c6.354,0,12.01,0.348,17.605-0.079c9.244-0.703,14.341-4.917,16.484-13.965
		c1.094-4.618,1.399-9.552,1.238-14.314c-0.481-14.206-8.686-21.916-22.821-21.958c-2.828-0.009-5.656,0.042-8.483,0.021
		c-2.631-0.02-4.031,1.149-4.029,3.875C211.682,30.815,211.676,46.098,211.676,61.955z"/>
</g>
</svg>

<?xml version="1.0" encoding="UTF-8" standalone="no"?>
<!DOCTYPE svg PUBLIC "-//W3C//DTD SVG 1.1//EN" "http://www.w3.org/Graphics/SVG/1.1/DTD/svg11.dtd">
<svg width="100%" height="100%" viewBox="0 0 160 160" version="1.1" xmlns="http://www.w3.org/2000/svg" xmlns:xlink="http://www.w3.org/1999/xlink" xml:space="preserve" xmlns:serif="http://www.serif.com/" style="fill-rule:evenodd;clip-rule:evenodd;stroke-linejoin:round;stroke-miterlimit:2;">
    <g transform="matrix(0.994817,0,0,1,7.01555,20.499)">
        <g>
            <g transform="matrix(1,0,0,1,-120,0)">
                <path d="M180,109C183.022,108.683 186.051,108.051 189.063,108.118C193.825,108.225 196.156,105.893 196.811,101.482C197.03,100.01 197.039,98.498 197.039,97.003C197.052,72.19 197.056,47.375 197.029,22.562C197.027,20.741 196.918,18.894 196.598,17.106C195.954,13.505 193.81,11.579 190.018,11.646C186.933,11.701 183.847,11.657 180.485,11.657C180.898,10.763 181.008,10.322 181.114,10.323C198.909,10.548 216.723,10.4 234.491,11.227C243.467,11.644 251.615,15.474 257.761,22.428C267.017,32.899 265.339,47.305 253.896,55.561C246.206,61.11 237.412,63.239 228.017,63.195C222.736,63.17 217.454,63.19 211.856,63.19C211.856,76.793 211.733,89.742 211.932,102.687C211.99,106.497 214.766,107.942 218.432,108.084C221.628,108.209 224.81,108.681 227.998,108.999C212,109 196,109 180,109ZM211.676,61.955C218.03,61.955 223.686,62.303 229.281,61.876C238.525,61.173 243.622,56.959 245.765,47.911C246.859,43.293 247.164,38.359 247.003,33.597C246.522,19.391 238.317,11.681 224.182,11.639C221.354,11.63 218.526,11.681 215.699,11.66C213.068,11.64 211.668,12.809 211.67,15.535C211.682,30.815 211.676,46.098 211.676,61.955Z"/>
            </g>
            <path d="M78.939,109C54.951,109 30.96,109.016 6.968,108.957C5.645,108.954 4.323,108.333 3,108C5.998,108.016 8.996,108.085 11.992,108.036C17.742,107.943 19.745,106.018 20.022,100.23C20.149,97.572 20.049,94.902 20.049,92.238C20.049,68.257 20.075,44.276 20.032,20.295C20.02,13.568 18.072,11.657 11.449,11.657C8.633,11.656 5.816,11.879 3,12L3,10L50.213,10C50.238,10.547 50.264,11.094 50.289,11.641C47.463,11.641 44.636,11.713 41.813,11.625C37.236,11.481 35.102,13.865 34.753,18.203C34.686,19.032 34.635,19.866 34.635,20.697C34.631,47.022 34.606,73.347 34.655,99.673C34.668,106.772 36.095,107.503 43.184,108.144C59.146,109.585 70.553,104.125 78.939,94.343L78.939,109Z"/>
        </g>
    </g>
</svg>
